modules/themify-icons/icons/alarm-clock.svg

<?xml version="1.0" encoding="utf-8"?>
<!-- Generated by IcoMoon.io -->
<!DOCTYPE svg PUBLIC "-//W3C//DTD SVG 1.1//EN" "http://www.w3.org/Graphics/SVG/1.1/DTD/svg11.dtd">
<svg version="1.1" xmlns="http://www.w3.org/2000/svg" xmlns:xlink="http://www.w3.org/1999/xlink" width="17" height="17" viewBox="0 0 17 17">
<g>
</g>
	<path d="M14.714 6.791c0.504-0.512 0.786-1.181 0.786-1.903 0-1.503-1.223-2.726-2.725-2.726-0.886 0-1.695 0.434-2.207 1.15-0.501-0.155-1.026-0.249-1.568-0.287v-1.025h1v-1h-3v1h1v1.025c-0.542 0.038-1.067 0.132-1.568 0.287-0.512-0.717-1.32-1.15-2.207-1.15-1.502 0-2.725 1.223-2.725 2.726 0 0.723 0.282 1.392 0.786 1.903-0.499 0.962-0.786 2.052-0.786 3.209 0 1.707 0.616 3.271 1.635 4.487l-1.285 1.713 0.8 0.6 1.192-1.59c1.239 1.109 2.868 1.79 4.658 1.79s3.419-0.681 4.658-1.79l1.192 1.59 0.8-0.6-1.285-1.713c1.019-1.216 1.635-2.78 1.635-4.487 0-1.157-0.287-2.247-0.786-3.209zM12.775 3.162c0.951 0 1.725 0.774 1.725 1.726 0 0.373-0.12 0.724-0.335 1.017-0.678-0.936-1.581-1.694-2.63-2.202 0.322-0.339 0.762-0.541 1.24-0.541zM2.5 4.888c0-0.951 0.774-1.726 1.725-1.726 0.478 0 0.918 0.202 1.24 0.54-1.049 0.508-1.951 1.267-2.63 2.202-0.215-0.293-0.335-0.643-0.335-1.016zM8.5 16c-3.309 0-6-2.691-6-6s2.691-6 6-6 6 2.691 6 6-2.691 6-6 6zM9 10h4v1h-5v-4h1v3z" fill="#000000" />
</svg>

<svg xmlns="http://www.w3.org/2000/svg" width="17" height="17"><path d="M14.714 6.791a2.69 2.69 0 0 0 .786-1.903 2.729 2.729 0 0 0-2.725-2.726c-.886 0-1.695.434-2.207 1.15A6.938 6.938 0 0 0 9 3.025V2h1V1H7v1h1v1.025a6.938 6.938 0 0 0-1.568.287 2.703 2.703 0 0 0-2.207-1.15A2.729 2.729 0 0 0 1.5 4.888c0 .723.282 1.392.786 1.903a6.963 6.963 0 0 0 .849 7.696L1.85 16.2l.8.6 1.192-1.59C5.081 16.319 6.71 17 8.5 17s3.419-.681 4.658-1.79l1.192 1.59.8-.6-1.285-1.713a6.963 6.963 0 0 0 .849-7.696zm-1.939-3.629c.951 0 1.725.774 1.725 1.726 0 .373-.12.724-.335 1.017a7.031 7.031 0 0 0-2.63-2.202 1.705 1.705 0 0 1 1.24-.541zM2.5 4.888c0-.951.774-1.726 1.725-1.726.478 0 .918.202 1.24.54a7.048 7.048 0 0 0-2.63 2.202A1.707 1.707 0 0 1 2.5 4.888zM8.5 16c-3.309 0-6-2.691-6-6s2.691-6 6-6 6 2.691 6 6-2.691 6-6 6zm.5-6h4v1H8V7h1v3z"/></svg>
